i/logo.svg

<svg width="120" height="40" viewBox="0 0 120 40" fill="none" xmlns="http://www.w3.org/2000/svg">
<path d="M118.244 3.71094H114.453V29.4522H118.244V3.71094Z" fill="white"/>
<path fill-rule="evenodd" clip-rule="evenodd" d="M110.355 29.4532H106.564V11.212H110.355V29.4532ZM108.46 3.07324C109.873 3.07324 111.019 4.21949 111.019 5.63199C111.019 7.04449 109.873 8.19199 108.46 8.19199C107.048 8.19199 105.9 7.04449 105.9 5.63199C105.9 4.21949 107.048 3.07324 108.46 3.07324Z" fill="white"/>
<path fill-rule="evenodd" clip-rule="evenodd" d="M102.468 29.437H98.7407V27.4421C97.4057 28.9546 95.0532 29.9046 92.8407 29.9046C87.5482 29.9046 83.252 25.6083 83.252 20.3158C83.252 15.0246 87.5482 10.7271 92.8407 10.7271C95.0532 10.7271 97.2819 11.5608 98.7407 13.0346V11.1958H102.468V29.437ZM92.962 14.5596C96.2245 14.5596 98.7919 16.8946 98.7919 20.3158C98.7919 23.7383 96.2245 26.0933 92.962 26.0933C89.6982 26.0933 87.2182 23.5796 87.2182 20.3158C87.2182 17.0533 89.6982 14.5596 92.962 14.5596Z" fill="white"/>
<path fill-rule="evenodd" clip-rule="evenodd" d="M55.4274 29.437H51.7012V11.1958H55.4274V12.4696C56.2549 11.6921 57.8062 10.7308 59.9587 10.7271C62.6024 10.7271 64.5737 11.8396 65.9249 13.6296C67.4024 11.8583 69.8374 10.7271 72.3199 10.7271C76.9762 10.7271 80.1499 13.8721 80.1499 18.7721V29.437H76.4237V18.7721C76.4237 16.3908 74.4862 14.4546 72.1062 14.4546C69.7249 14.4546 67.7887 16.3908 67.7887 18.7721V29.437H64.0624V18.7721C64.0624 16.3908 62.1249 14.4546 59.7449 14.4546C57.3637 14.4546 55.4274 16.3908 55.4274 18.7721V29.437Z" fill="white"/>
<path d="M26.6413 20C26.6413 23.3175 23.9425 26.0163 20.625 26.0163C17.3075 26.0163 14.6088 23.3175 14.6088 20C14.6088 16.6825 17.3075 13.9838 20.625 13.9838C23.9425 13.9838 26.6413 16.6825 26.6413 20ZM20.625 0C9.5975 0 0.625 8.9725 0.625 20C0.625 31.0275 9.5975 40 20.625 40C24.665 40 28.5613 38.7975 31.8913 36.5212L31.9487 36.4813L29.2537 33.3488L29.2088 33.3787C26.645 35.0275 23.6763 35.9 20.625 35.9C11.8575 35.9 4.725 28.7675 4.725 20C4.725 11.2325 11.8575 4.1 20.625 4.1C29.3925 4.1 36.525 11.2325 36.525 20C36.525 21.1362 36.3988 22.2862 36.15 23.4175C35.6475 25.4812 34.2025 26.1137 33.1175 26.03C32.0262 25.9412 30.75 25.1637 30.7413 23.2612V21.8112V20C30.7413 14.4213 26.2038 9.88375 20.625 9.88375C15.0463 9.88375 10.5087 14.4213 10.5087 20C10.5087 25.5788 15.0463 30.1163 20.625 30.1163C23.335 30.1163 25.8762 29.0563 27.7925 27.13C28.9062 28.8638 30.7225 29.9513 32.7887 30.1163C32.9663 30.1313 33.1475 30.1388 33.3275 30.1388C34.7812 30.1388 36.2238 29.6525 37.3862 28.7687C38.585 27.8587 39.48 26.5425 39.975 24.9613C40.0537 24.7062 40.1987 24.1213 40.2 24.1175L40.2038 24.0963C40.495 22.8275 40.625 21.5625 40.625 20C40.625 8.9725 31.6525 0 20.625 0" fill="#FF7F22"/>
</svg>

<svg width="120" height="40" fill="none" xmlns="http://www.w3.org/2000/svg"><path d="M118.244 3.71h-3.791v25.742h3.791V3.711z" fill="#fff"/><path fill-rule="evenodd" clip-rule="evenodd" d="M110.355 29.453h-3.791V11.212h3.791v18.241zm-1.895-26.38a2.56 2.56 0 1 1-.001 5.12 2.56 2.56 0 0 1 .001-5.12zm-5.992 26.364h-3.727v-1.995c-1.335 1.513-3.688 2.463-5.9 2.463-5.293 0-9.589-4.297-9.589-9.59 0-5.29 4.296-9.588 9.589-9.588 2.212 0 4.44.834 5.9 2.308v-1.84h3.727v18.242zM92.962 14.56c3.263 0 5.83 2.335 5.83 5.756 0 3.422-2.567 5.777-5.83 5.777-3.264 0-5.744-2.513-5.744-5.777 0-3.263 2.48-5.756 5.744-5.756zM55.427 29.437h-3.726V11.196h3.726v1.274c.828-.778 2.38-1.74 4.532-1.743 2.643 0 4.615 1.113 5.966 2.903 1.477-1.772 3.912-2.903 6.395-2.903 4.656 0 7.83 3.145 7.83 8.045v10.665h-3.726V18.772a4.322 4.322 0 0 0-4.318-4.317 4.322 4.322 0 0 0-4.317 4.317v10.665h-3.727V18.772a4.322 4.322 0 0 0-4.317-4.317 4.322 4.322 0 0 0-4.318 4.317v10.665z" fill="#fff"/><path d="M26.641 20a6.023 6.023 0 0 1-6.016 6.016A6.023 6.023 0 0 1 14.609 20a6.023 6.023 0 0 1 6.016-6.016A6.023 6.023 0 0 1 26.641 20zM20.625 0c-11.027 0-20 8.973-20 20s8.973 20 20 20c4.04 0 7.936-1.203 11.266-3.479l.058-.04-2.695-3.132-.045.03a15.84 15.84 0 0 1-8.584 2.521c-8.768 0-15.9-7.133-15.9-15.9 0-8.768 7.133-15.9 15.9-15.9s15.9 7.133 15.9 15.9a15.94 15.94 0 0 1-.375 3.418c-.502 2.063-1.947 2.696-3.032 2.612-1.092-.089-2.368-.866-2.377-2.769V20c0-5.579-4.537-10.116-10.116-10.116S10.509 14.42 10.509 20s4.537 10.116 10.116 10.116c2.71 0 5.251-1.06 7.168-2.986a6.498 6.498 0 0 0 4.996 2.986c.177.015.358.023.538.023a6.748 6.748 0 0 0 4.06-1.37c1.198-.91 2.093-2.226 2.588-3.808.079-.255.224-.84.225-.843l.004-.022c.291-1.268.421-2.534.421-4.096 0-11.027-8.973-20-20-20" fill="#FF7F22"/></svg>
